img/loupe.svg

<svg width="25" height="25" viewBox="0 0 25 25" fill="none" xmlns="http://www.w3.org/2000/svg">
<g clip-path="url(#clip0_100_26)">
<path d="M19.729 17.9888L25 23.2586L23.2586 25L17.9888 19.729C16.028 21.3009 13.5892 22.1558 11.0761 22.1522C4.9621 22.1522 0 17.1901 0 11.0761C0 4.9621 4.9621 0 11.0761 0C17.1901 0 22.1522 4.9621 22.1522 11.0761C22.1558 13.5892 21.3009 16.028 19.729 17.9888ZM17.2603 17.0757C18.8221 15.4695 19.6944 13.3165 19.6909 11.0761C19.6909 6.31584 15.8351 2.46136 11.0761 2.46136C6.31584 2.46136 2.46136 6.31584 2.46136 11.0761C2.46136 15.8351 6.31584 19.6909 11.0761 19.6909C13.3165 19.6944 15.4695 18.8221 17.0757 17.2603L17.2603 17.0757Z" fill="white"/>
</g>
<defs>
<clipPath id="clip0_100_26">
<rect width="25" height="25" fill="white"/>
</clipPath>
</defs>
</svg>

<svg width="25" height="25" fill="none" xmlns="http://www.w3.org/2000/svg"><g clip-path="url(#clip0_100_26)"><path d="M19.729 17.989L25 23.259 23.259 25l-5.27-5.271a11.026 11.026 0 01-6.913 2.423C4.962 22.152 0 17.19 0 11.076 0 4.962 4.962 0 11.076 0c6.114 0 11.076 4.962 11.076 11.076a11.026 11.026 0 01-2.423 6.913zm-2.469-.913a8.587 8.587 0 002.43-6 8.612 8.612 0 00-8.614-8.615 8.612 8.612 0 00-8.615 8.615 8.612 8.612 0 008.615 8.615 8.587 8.587 0 006-2.43l.184-.185z" fill="#fff"/></g><defs><clipPath id="clip0_100_26"><path fill="#fff" d="M0 0h25v25H0z"/></clipPath></defs></svg>
